assets/symbols/mulberry/flag_sao_tome_principe.svg

<svg height="850.394" viewBox="0 0 850.394 850.394" width="850.394" xmlns="http://www.w3.org/2000/svg"><path d="m748.18 406v114.17h-579.62l-.08-8.6 107.97-105.57h471.55z" fill="#58b947"/><path d="m748.18 272v134h-471.73l69.55-68-58.08-65.93.08-.07z" fill="#fbed24"/><path d="m748.18 177.46v94.54h-460.18l-.08.07-116.04-131.73h576.3z" fill="#58b947"/><path d="m276.45 406-107.97 105.57-.91-99.23 4.2-272h.11l116.04 131.73 58.08 65.93z" fill="#ed1e29"/><path d="m171.77 140.21.11.13h-.11zm0 .13-4.2 272-2.5-272z" fill="#fff"/><path d="m162.61 114.42c-5.96 2.8-13.07 4.43-20.69 4.43-7.3 0-14.12-1.49-19.92-4.08-10.99-4.89-18.33-13.72-18.33-23.8 0-15.4 17.13-27.88 38.25-27.88 21.13 0 38.26 12.48 38.26 27.88 0 9.84-7 18.49-17.57 23.45z" fill="#c8c8c8"/><path d="m167.57 412.34.91 99.23-2.48 2.43z" fill="#fff"/><path d="m162.61 114.42v670.96h-39.49l-1.12-670.61c5.8 2.59 12.62 4.08 19.92 4.08 7.62 0 14.73-1.63 20.69-4.43z" fill="#c8c8c8"/><g fill="none" stroke="#231f20"><path d="m171.88 140.34h576.3v379.83h-579.62m-3.49-379.83h6.7m-49.77-25.57c-10.99-4.89-18.33-13.72-18.33-23.8 0-15.4 17.13-27.88 38.25-27.88 21.13 0 38.26 12.48 38.26 27.88 0 9.84-7 18.49-17.57 23.45-5.96 2.8-13.07 4.43-20.69 4.43-7.3 0-14.12-1.49-19.92-4.08z" stroke-width="21"/><path d="m122 114v.77l1.12 670.61m39.49-672.78v672.78" stroke-width="21"/><path d="m744.76 179.39 3.42-1.93 2.01-1.14m-578.42-36.11.11.13 116.04 131.73 58.08 65.93-69.55 68-107.97 105.57-2.48 2.43m108-108h474m-460-134h462" stroke-width="14"/></g><path d="m0 0h850.394v850.394h-850.394z" fill="none"/><path d="m497.4 298.508 12.731 25.79 28.459 4.139-20.59 20.077 4.855 28.345-25.455-13.382-25.455 13.382 4.856-28.345-20.59-20.077 28.459-4.139zm145 1 12.731 25.79 28.459 4.139-20.59 20.077 4.855 28.345-25.455-13.382-25.455 13.382 4.856-28.345-20.59-20.077 28.459-4.139z" fill="#231f20" stroke="#231f20" stroke-width="7"/></svg>

<svg xmlns="http://www.w3.org/2000/svg" width="850.394" height="850.394" viewBox="0 0 850.394 850.394" overflow="visible"><path fill="#58b947" d="M748.18 406v114.17H168.56l-.08-8.6L276.45 406H748z"/><path fill="#fbed24" d="M748.18 272v134H276.45L346 338l-58.08-65.93.08-.07z"/><path fill="#58b947" d="M748.18 177.46V272H288l-.08.07-116.04-131.73h576.3z"/><path fill="#ed1e29" d="M276.45 406L168.48 511.57l-.91-99.23 4.2-272h.11l116.04 131.73L346 338z"/><path fill="#fff" d="M171.77 140.21l.11.13h-.11zM171.77 140.34l-4.2 272-2.5-272z"/><path d="M162.61 114.42c-5.96 2.8-13.07 4.43-20.69 4.43-7.3 0-14.12-1.49-19.92-4.08-10.99-4.89-18.33-13.72-18.33-23.8 0-15.4 17.13-27.88 38.25-27.88 21.13 0 38.26 12.48 38.26 27.88 0 9.84-7 18.49-17.57 23.45z" fill="#c8c8c8"/><path fill="#fff" d="M167.57 412.34l.91 99.23L166 514z"/><path d="M162.61 114.42v670.96h-39.49L122 114.77c5.8 2.59 12.62 4.08 19.92 4.08 7.62 0 14.73-1.63 20.69-4.43z" fill="#c8c8c8"/><g fill="none" stroke="#231f20"><path stroke-width="21" d="M171.88 140.34h576.3v379.83H168.56M165.07 140.34h6.7M122 114.77c-10.99-4.89-18.33-13.72-18.33-23.8 0-15.4 17.13-27.88 38.25-27.88 21.13 0 38.26 12.48 38.26 27.88 0 9.84-7 18.49-17.57 23.45-5.96 2.8-13.07 4.43-20.69 4.43-7.3 0-14.12-1.49-19.92-4.08z"/><path stroke-width="21" d="M122 114v.77l1.12 670.61M162.61 112.6V785.38"/><path stroke-width="14" d="M744.76 179.39l3.42-1.93 2.01-1.14M171.77 140.21l.11.13 116.04 131.73L346 338l-69.55 68-107.97 105.57L166 514M274 406h474M288 272h462"/></g><path fill="none" d="M0 0h850.394v850.394H0z"/><path fill="#231f20" stroke="#231f20" stroke-width="7" d="M497.4 298.508l12.731 25.79 28.459 4.139L518 348.514l4.855 28.345-25.455-13.382-25.455 13.382 4.856-28.345-20.59-20.077 28.459-4.139zM642.4 299.508l12.731 25.79 28.459 4.139L663 349.514l4.855 28.345-25.455-13.382-25.455 13.382 4.856-28.345-20.59-20.077 28.459-4.139z"/></svg>
